svgs/binance.svg

<svg width="192" height="192" viewBox="0 0 192 192" fill="none" xmlns="http://www.w3.org/2000/svg"><path fill-rule="evenodd" clip-rule="evenodd" d="M100.243 17.757a6 6 0 0 0-8.486 0l-74 74a6 6 0 0 0 0 8.486l74 74a6 6 0 0 0 8.486 0l74-74a6 6 0 0 0 0-8.486l-74-74Zm-53.707 94.294L30.486 96l16.05-16.051L62.562 96l-16.026 16.051Zm8.486 8.485L96 161.515l40.978-40.979-16.018-16.044-20.714 20.747a5.997 5.997 0 0 1-8.492 0L71.04 104.492l-16.019 16.044Zm90.442-8.485L161.515 96l-16.051-16.051L129.438 96l16.026 16.051Zm-8.486-40.587L96 30.485 55.022 71.464 71.04 87.508 91.754 66.76a6 6 0 0 1 8.492 0l20.714 20.747 16.018-16.044ZM96 112.508 79.519 96 96 79.492 112.481 96 96 112.508Z" fill="#000"/></svg>

<svg id="vector" xmlns="http://www.w3.org/2000/svg" width="192" height="192" viewBox="0 0 192 192"><path fill="#000000" d="M100.243,17.757C97.899,15.414 94.101,15.414 91.757,17.757L17.757,91.757C15.414,94.101 15.414,97.899 17.757,100.243L91.757,174.243C94.101,176.586 97.899,176.586 100.243,174.243L174.243,100.243C176.586,97.899 176.586,94.101 174.243,91.757L100.243,17.757ZM46.536,112.051L30.485,96L46.536,79.949L62.562,96L46.536,112.051ZM55.021,120.536L96,161.515L136.978,120.536L120.96,104.492L100.246,125.239C99.12,126.367 97.593,127 96,127C94.407,127 92.88,126.367 91.754,125.239L71.04,104.492L55.021,120.536ZM145.464,112.051L161.515,96L145.464,79.949L129.438,96L145.464,112.051ZM136.978,71.464L96,30.485L55.021,71.464L71.04,87.508L91.754,66.761C92.88,65.633 94.407,65 96,65C97.593,65 99.12,65.633 100.246,66.761L120.96,87.508L136.978,71.464ZM96,112.508L79.519,96L96,79.492L112.481,96L96,112.508Z" fill-rule="evenodd" id="path_0"/></svg>
